src/img/flag_it.svg

<svg fill="none" height="20" viewBox="0 0 32 20" width="32" xmlns="http://www.w3.org/2000/svg" xmlns:xlink="http://www.w3.org/1999/xlink"><clipPath id="a"><path d="m0 2c0-1.10457.895431-2 2-2h28c1.1046 0 2 .895431 2 2v15.2c0 1.1046-.8954 2-2 2h-28c-1.104569 0-2-.8954-2-2z"/></clipPath><clipPath id="b"><path d="m0 0h32v19.2h-32z"/></clipPath><g clip-path="url(#a)"><g clip-path="url(#b)"><path d="m0 0h32v19.2h-32z" fill="#fff"/><path d="m0 0h10.6667v19.2h-10.6667z" fill="#009246"/><path d="m10.6666 0h10.6667v19.2h-10.6667z" fill="#fff"/><path d="m21.3334 0h10.6667v19.2h-10.6667z" fill="#ce2b37"/></g></g></svg>

<svg width="32" height="20" viewBox="0 0 32 20" fill="none" xmlns="http://www.w3.org/2000/svg">
<g clip-path="url(#clip0)">
<g clip-path="url(#clip1)">
<path d="M0 0H32V19.2H0V0Z" fill="white"/>
<rect width="10.6667" height="19.2" fill="#009246"/>
<rect x="10.6666" width="10.6667" height="19.2" fill="white"/>
<rect x="21.3334" width="10.6667" height="19.2" fill="#CE2B37"/>
</g>
</g>
<defs>
<clipPath id="clip0">
<path d="M0 2C0 0.89543 0.895431 0 2 0H30C31.1046 0 32 0.895431 32 2V17.2C32 18.3046 31.1046 19.2 30 19.2H2C0.895431 19.2 0 18.3046 0 17.2V2Z" fill="white"/>
</clipPath>
<clipPath id="clip1">
<path d="M0 0H32V19.2H0V0Z" fill="white"/>
</clipPath>
</defs>
</svg>
